X:192
T:The Ardoc Village Breakdo
R:reel
C:Bruce Osborne - Nov. 2002
Z:abc by bosborne@kos,net
M:2/4
L:1/8
K:Amaj
E/G/|AA/c/ B/A/G/B/|A/c/e/c/ f/c/e/c/|B/E/c/E/ d/E/c/E/|B/E/c/E/ BE/G/|\
AA/c/ B/A/G/B/|A/c/e/c/ f/c/e/c/|B/E/c/E/ d/E/c/E/|B/A/G/B/ A:|
|:G/A/|B/E/E/E/ B/d/c/B/|c/A/A/E/ A/c/B/A/|G/E/G/B/ d/B/G/B/|A/B/c/f/ eG/A/|\
B/E/E/E/ B/d/c/B/|c/A/A/E/ A/c/B/A/|G/E/G/B/ d/B/G/B/|A/c/B/G/ A:|
